design-system/icon/svgs/media-services/zip.svg

<svg width="24" height="24" viewBox="0 0 24 24"><g fill-rule="evenodd"><rect fill="currentColor" x="4" y="4" width="16" height="16" rx="2"/><path d="M9 6.999C9 6.447 9.443 6 9.999 6H12v3H9.999A.996.996 0 019 8.001V6.999zM12 9h2.001c.552 0 .999.443.999.999v1.002a.996.996 0 01-.999.999H12V9zm-3 3.999c0-.552.443-.999.999-.999H12v3H9.999A.996.996 0 019 14.001v-1.002zM12 15h2.001c.552 0 .999.443.999.999v1.002a.996.996 0 01-.999.999H12v-3z" fill="inherit"/></g></svg>

<svg width="24" height="24" viewBox="0 0 24 24"><g fill-rule="evenodd"><rect width="16" height="16" x="4" y="4" fill="currentColor" rx="2"/><path fill="inherit" d="M9 7c0-.55.44-1 1-1h2v3h-2a1 1 0 0 1-1-1zm3 2h2c.55 0 1 .44 1 1v1a1 1 0 0 1-1 1h-2zm-3 4c0-.55.44-1 1-1h2v3h-2a1 1 0 0 1-1-1zm3 2h2c.55 0 1 .44 1 1v1a1 1 0 0 1-1 1h-2z"/></g></svg>
